!!!OTL: Graf und Nonne (Die Nonne) Stand ich auf hohen Bergen,
!!!ARE: Europa, Mitteleuropa, Deutschland (), Thueringen, Poermitz
!!!YOR: 8, S. 51
!!    1909 aufgezeichnet
!!!SCT: Q0155J
!!!YEM: Copyright 1995, estate of Helmut Schaffrath.
**kern
*ICvox
*Ivox
*M6/8
*k[b-]
*F:
{8c
=1
4f
8a
4cc
8f
=2
8f
8e
4.r}
{8c
=3
4e
8g
4cc
8b-
=4
4a
4.r}
{8c
=5
4f
8g
4a
8b-
=6
4cc
8ff
4ee}
{8dd
=7
8cc
8cc
8cc
4b-
8e
=8
2f
8r}
==
!!!AGN: Ballade, Standesunterschied, vergebliche Werbung, Liebe, Klage
!!!ONB: ESAC (Essen Associative Code) Database: BALLADE
!!!AMT: compound duple
!!!AIN: vox
!!!EED: Helmut Schaffrath
!!!EEV: 1.0
*-
